X:3045
T:Cicek Dagi
O:Turkey
M:4/4
K:Bb
D2CED2z2|D2CED2z2|DE^FEGFED|D2CED2z2|DE^FEGFED|D2CED2z2||
C2B,DC2E2|D2CED2z>D|C2B,DC2E2|D2CED2zG,|
B,CDB,C2E2|D2CED2G,A,|B,CDB,C2E2|D2CED2z2|
|:D2G2G2G2|^FF/2A/2GFGFED|DE^FEGFED|DECED2z2:|
C2B,DC2E2|D2CED2z>D|C2B,DC2E2|D2CED2zG,|
B,CDB,C2E2|D2CED2G,A,|B,CDB,C2E2|D2CED2z2|
|:D^EFEFEFE|F>^EDF^E2z2|DzE2DzE2|E>DCED2z2:|
|:D2G2G2G2|^FF/2A/2GFGFED|DE^FEGFED|DECED2z2:|
C2B,DC2E2|D2CED2z>D|C2B,DC2E2|D2CED2zG,|
B,CDB,C2E2|D2CED2G,A,|B,CDB,C2E2|D2CED2z2|
^FGA2A2G2|G2B2A2z2|^FGA2A2G2|G2B2A2z2|^FGA2A2G2|
c2BA/2B/2A2G2|^FGAGA2G2|^FF/2A/2GFE2D2|DE^FEGFED|DECED2z2|
C2B,DC2E2|D2CED2z>D|C2B,DC2E2|D2CED2zG,|
B,CDB,C2E2|D2CED2G,A,|B,CDB,C2E2|D2CED2z2|
|:d>cd^ed2c2|^B8|A^BcBcdB2|A8:||
|B>AGBA2z2|G^FEGF2z2|E>DCED^FGA|
B>AGBA2z2|G^FEGF2z2|E>DCED2z2|
C2B,DC2E2|D2CED2z>D|C2B,DC2E2|D2CED2zG,|
B,CDB,C2E2|D2CED2G,A,|B,CDB,C2E2|D2CED2z2||
 


